src/icons/config.npm-lock.svg

<svg width="16" height="16" viewBox="0 0 16 16" fill="none" xmlns="http://www.w3.org/2000/svg">
  <g id="package-lock">
    <g id="Group">
      <path id="Subtract" fill-rule="evenodd" clip-rule="evenodd"
        d="M3.745 4.74494C3.745 4.19265 4.19271 3.74494 4.745 3.74494H9.73015C10.2824 3.74494 10.7302 4.19265 10.7302 4.74494V6.01016C10.9981 5.89083 11.2941 5.82461 11.6052 5.82461C11.9164 5.82461 12.2124 5.89086 12.4804 6.01024V3C12.4804 2.44772 12.0327 2 11.4804 2H3C2.44772 2 2 2.44771 2 3V11.48C2 12.0323 2.44771 12.48 3 12.48H7.76311V9.24394C7.76311 8.75606 8.15605 8.35688 8.6363 8.35688H8.98518V6.36236C8.98518 5.8805 8.59455 5.48987 8.11269 5.48987C7.63083 5.48987 7.24021 5.8805 7.24021 6.36236V9.72987C7.24021 10.2822 6.79249 10.7299 6.24021 10.7299H4.745C4.19271 10.7299 3.745 10.2822 3.745 9.72987V4.74494Z"
        fill="#E75A5A" />
      <g id="ic_lock_24px">
        <path id="Shape" fill-rule="evenodd" clip-rule="evenodd"
          d="M13.5699 9.46293H13.2424V8.79763C13.2424 7.87953 12.5089 7.1344 11.6052 7.1344C10.7014 7.1344 9.96793 7.87953 9.96793 8.79763V9.46293H9.64048C9.28028 9.46293 8.98558 9.76231 8.98558 10.1282V13.4547C8.98558 13.8206 9.28028 14.12 9.64048 14.12H13.5699C13.9301 14.12 14.2248 13.8206 14.2248 13.4547V10.1282C14.2248 9.76231 13.9301 9.46293 13.5699 9.46293ZM11.6052 12.4567C11.245 12.4567 10.9503 12.1574 10.9503 11.7915C10.9503 11.4255 11.245 11.1262 11.6052 11.1262C11.9654 11.1262 12.2601 11.4255 12.2601 11.7915C12.2601 12.1574 11.9654 12.4567 11.6052 12.4567ZM10.5901 8.79763V9.46293H12.6203V8.79763C12.6203 8.22881 12.1651 7.76643 11.6052 7.76643C11.0452 7.76643 10.5901 8.22881 10.5901 8.79763Z"
          fill="#E0AF00" />
      </g>
    </g>
  </g>
</svg>

<svg xmlns="http://www.w3.org/2000/svg" fill="none" viewBox="0 0 16 16">
  <path fill="#E75A5A" fill-rule="evenodd" d="M3.745 4.745c0-.5523.4477-1 1-1h4.9851c.5523 0 1.0001.4477 1.0001 1v1.2652a2.1448 2.1448 0 0 1 .875-.1856c.3112 0 .6072.0663.8752.1856V3c0-.5523-.4477-1-1-1H3c-.5523 0-1 .4477-1 1v8.48c0 .5523.4477 1 1 1h4.7631V9.244c0-.488.393-.8871.8732-.8871h.3489V6.3624a.8725.8725 0 0 0-1.745 0v3.3675c0 .5523-.4477 1-1 1H4.745c-.5523 0-1-.4477-1-1v-4.985Z" clip-rule="evenodd"/>
  <path fill="#E0AF00" fill-rule="evenodd" d="M13.5699 9.463h-.3275v-.6654c0-.918-.7335-1.6632-1.6372-1.6632-.9038 0-1.6373.7451-1.6373 1.6632v.6653h-.3274c-.3602 0-.655.2994-.655.6653v3.3265c0 .3659.2948.6653.655.6653h3.9294c.3602 0 .6549-.2994.6549-.6653v-3.3265c0-.3659-.2947-.6653-.6549-.6653Zm-1.9647 2.9937c-.3602 0-.6549-.2993-.6549-.6652 0-.366.2947-.6653.6549-.6653s.6549.2993.6549.6653c0 .3659-.2947.6652-.6549.6652Zm-1.0151-3.659v.6652h2.0302v-.6653c0-.5688-.4552-1.0312-1.0151-1.0312-.56 0-1.0151.4624-1.0151 1.0312Z" clip-rule="evenodd"/>
</svg>
